packages/foundations/assets/icons/functional/images/maps/station_12_filled.svg

<svg width="12" height="12" viewBox="0 0 12 12" fill="none" xmlns="http://www.w3.org/2000/svg">
<g clip-path="url(#clip0_2213_5321)">
<path fill-rule="evenodd" clip-rule="evenodd" d="M5.99995 1.19995C8.65092 1.19995 10.8 3.34898 10.8 5.99995C10.8 8.65092 8.65092 10.8 5.99995 10.8C3.34898 10.8 1.19995 8.65092 1.19995 5.99995C1.19995 3.34898 3.34898 1.19995 5.99995 1.19995ZM7.50805 3.60085C7.19638 3.60085 6.94371 3.85348 6.94365 4.16515L6.94341 5.51545H5.05581L5.05605 4.16515C5.0561 3.87581 4.80351 3.60085 4.49185 3.60085C4.1802 3.60085 3.92755 3.8535 3.92755 4.16515V7.83475C3.92755 8.14641 4.1802 8.39905 4.49185 8.39905C4.80345 8.39905 5.05606 8.14645 5.05606 7.83485L5.05581 6.36625H6.94341L6.94366 7.83475C6.94371 8.14642 7.19638 8.39905 7.50805 8.39905C7.81971 8.39905 8.07235 8.14641 8.07235 7.83475V4.16515C8.07235 3.8535 7.81971 3.60085 7.50805 3.60085Z" fill="#1A1C1F"/>
</g>
<defs>
<clipPath id="clip0_2213_5321">
<rect width="12" height="12" fill="white"/>
</clipPath>
</defs>
</svg>

<svg xmlns="http://www.w3.org/2000/svg" width="12" height="12" fill="none"><g clip-path="url(#a)"><path fill="#1A1C1F" fill-rule="evenodd" d="M6 1.2a4.8 4.8 0 1 1 0 9.6 4.8 4.8 0 0 1 0-9.6m1.508 2.4a.564.564 0 0 0-.564.565v1.35H5.055v-1.35a.58.58 0 0 0-.564-.564.564.564 0 0 0-.564.564v3.67a.564.564 0 0 0 1.128 0V6.366h1.887v1.469a.564.564 0 0 0 1.13 0v-3.67a.564.564 0 0 0-.565-.564" clip-rule="evenodd"/></g><defs><clipPath id="a"><path fill="#fff" d="M0 0h12v12H0z"/></clipPath></defs></svg>
